iconography/32x32/Csharp_SDK.svg

<svg width="33" height="32" viewBox="0 0 33 32" fill="none" xmlns="http://www.w3.org/2000/svg">
<path d="M27.9978 10.5551C27.9974 10.1787 27.8866 9.83026 27.6754 9.5119C27.4821 9.18017 27.2171 8.91278 26.876 8.72268C24.5237 7.4133 22.1701 6.10685 19.8161 4.79956C18.8802 4.27982 17.9556 3.74003 17.0037 3.24995C16.3193 2.89775 15.5977 2.92491 14.9147 3.2863C14.2247 3.65146 13.5486 4.04168 12.8665 4.42062C10.2939 5.84991 7.71961 7.27501 5.14964 8.70889C4.39147 9.1317 4.00435 9.78013 4.00348 10.6249C4 14.1904 4.00391 17.7555 4 21.3205C3.99957 21.7412 4.09081 22.1331 4.3024 22.5C4.4536 22.744 4.64173 22.9587 4.87896 23.1275C5.24871 23.3907 5.66364 23.5833 6.05858 23.8073C6.74941 24.1983 7.44589 24.581 8.14237 24.9629C8.28663 25.0421 8.42346 25.1353 8.57796 25.1971C8.60186 25.2066 8.61705 25.2296 8.63922 25.2426V25.2426C8.65383 25.2513 8.67253 25.2541 8.68647 25.2638C8.69694 25.2711 8.7075 25.2781 8.71879 25.2836C8.74603 25.297 8.77128 25.3211 8.80016 25.3304V25.3304C8.81012 25.3336 8.822 25.3354 8.83121 25.3404C8.89215 25.3734 8.94754 25.4162 9.01171 25.4432C9.04773 25.4584 9.08058 25.4883 9.11474 25.5073V25.5073C9.41236 25.6715 9.70955 25.8361 10.0072 26.0003C10.6085 26.3324 11.2103 26.6633 11.8107 26.9967C12.3295 27.285 12.8461 27.577 13.3649 27.8653C13.8584 28.1398 14.3563 28.4068 14.8469 28.6859C15.4934 29.0531 16.1742 29.0957 16.8533 28.8275C17.366 28.6249 17.8248 28.3103 18.3088 28.0471C18.8493 27.7529 19.3846 27.4504 19.9221 27.1521C20.513 26.8242 21.1047 26.497 21.6956 26.1686C22.2613 25.854 22.8262 25.5378 23.3923 25.2236C23.852 24.9683 24.3134 24.716 24.7727 24.4607C25.3757 24.1252 25.9766 23.7872 26.5801 23.4521C26.8799 23.2858 27.1893 23.1317 27.4204 22.8747C27.484 22.804 27.5513 22.735 27.6066 22.658C27.6792 22.557 27.7323 22.4429 27.788 22.3316V22.3316C27.9292 22.0521 27.9978 21.755 27.9983 21.4459C28.0004 19.5892 27.9996 17.7321 28 15.8754C27.9987 14.1022 28.0004 12.3287 27.9978 10.5551Z" stroke="#002E42" stroke-width="2" stroke-linecap="round"/>
<path d="M13.7066 21.5183C13.6823 21.508 13.6564 21.5019 13.6327 21.4904C13.4655 21.4088 13.2965 21.3313 13.1329 21.243C12.1538 20.7141 11.3802 19.9752 10.82 19.02C10.4729 18.4154 10.2407 17.7698 10.114 17.0869C10.0371 16.6728 9.99094 16.2541 10.0015 15.8331C10.0223 14.9826 10.2004 14.1664 10.5739 13.3955C10.8503 12.8251 11.2109 12.3148 11.6569 11.8612C12.2788 11.2289 13.0069 10.7583 13.8353 10.4345C14.661 10.1117 15.5181 9.96689 16.4039 10.0063C17.1172 10.038 17.8037 10.1935 18.4609 10.4743C19.3816 10.8676 20.1437 11.463 20.7778 12.2254C20.9645 12.4498 21.137 12.6846 21.2931 12.9308V12.9308C21.312 12.9601 21.3094 12.9982 21.2804 13.0177C21.1151 13.1288 20.937 13.219 20.7646 13.3179C20.1447 13.6743 19.5228 14.0275 18.901 14.3806C18.8876 14.3883 18.8745 14.3965 18.8615 14.405C18.7713 14.4639 18.6609 14.4182 18.5984 14.3304V14.3304C17.9145 13.3704 16.9796 12.9089 15.7943 13.0055C15.0094 13.0694 14.3295 13.3968 13.8201 13.9984C13.0445 14.9148 12.8334 15.9485 13.251 17.0859C13.2934 17.2016 13.3384 17.3184 13.4078 17.4223C13.4398 17.4703 13.4682 17.5246 13.4988 17.5735V17.5735C13.7221 17.9289 14.0049 18.2305 14.3575 18.4604C15.2875 19.0663 16.273 19.1958 17.3055 18.7487C17.8676 18.5053 18.2984 18.106 18.629 17.6025C18.6647 17.5481 18.7143 17.4994 18.7706 17.532V17.532C19.3971 17.8901 20.0233 18.2491 20.6498 18.6072C20.8695 18.7327 21.0902 18.8563 21.3102 18.9815V18.9815C21.3275 18.9914 21.3228 19.0186 21.3125 19.0356C21.0539 19.4631 20.7586 19.8633 20.4073 20.2217C19.6162 21.0294 18.6687 21.5675 17.5625 21.832C16.8506 22.0022 16.1308 22.0416 15.404 21.9569C14.8177 21.8887 14.2523 21.7413 13.7066 21.5183V21.5183Z" stroke="#002E42" stroke-width="2" stroke-linecap="round"/>
<path d="M23.0357 14.9119C23.1166 14.9119 23.1975 14.9093 23.278 14.9127C23.328 14.915 23.346 14.8939 23.3507 14.8426C23.3741 14.5891 23.4021 14.3356 23.423 14.0817C23.428 14.0211 23.4431 13.9986 23.5017 14.0001C23.6362 14.0035 23.7711 14.0039 23.9059 14.0001C23.9631 13.9986 23.9779 14.0181 23.9718 14.0771C23.9455 14.3271 23.9246 14.578 23.897 14.8281C23.889 14.8978 23.9081 14.9162 23.9714 14.9135C24.085 14.9085 24.199 14.9142 24.3127 14.9112C24.363 14.9097 24.381 14.9261 24.3799 14.9813C24.377 15.1214 24.3767 15.262 24.3799 15.4022C24.3814 15.4577 24.3623 15.473 24.3127 15.4719C24.1782 15.4692 24.0433 15.4734 23.9085 15.4696C23.8502 15.468 23.8319 15.4899 23.8268 15.5504C23.8088 15.766 23.7869 15.9816 23.7628 16.1968C23.756 16.2589 23.7689 16.2826 23.8315 16.2799C23.9419 16.2753 24.053 16.2803 24.1638 16.278C24.2127 16.2769 24.2325 16.2922 24.231 16.3481C24.2278 16.4883 24.2278 16.6288 24.231 16.769C24.2321 16.8245 24.2127 16.841 24.1631 16.8398C24.0372 16.8376 23.9113 16.8433 23.7858 16.8376C23.7193 16.8345 23.6974 16.8605 23.6916 16.9279C23.6686 17.1975 23.6387 17.4668 23.6172 17.7368C23.6111 17.8126 23.5902 17.8429 23.515 17.8394C23.3895 17.8333 23.2637 17.8344 23.1378 17.839C23.0669 17.8417 23.0465 17.8241 23.0565 17.7421C23.0896 17.4706 23.1119 17.1972 23.141 16.9253C23.1482 16.8586 23.1302 16.8364 23.0655 16.8383C22.9159 16.8429 22.7663 16.8425 22.6167 16.8387C22.5534 16.8372 22.5279 16.8548 22.5225 16.9276C22.5013 17.2006 22.4718 17.4729 22.4484 17.746C22.4426 17.8107 22.4247 17.8429 22.356 17.8398C22.2244 17.8344 22.0924 17.8352 21.9608 17.8394C21.896 17.8417 21.878 17.8195 21.886 17.7517C21.9162 17.4859 21.9417 17.2198 21.9697 16.9536C21.9816 16.8402 21.9823 16.8402 21.8712 16.8402C21.7694 16.8402 21.6677 16.8379 21.5659 16.8414C21.5141 16.8433 21.499 16.823 21.5001 16.7694C21.503 16.6292 21.5033 16.4887 21.5001 16.3485C21.4986 16.2933 21.5163 16.2773 21.5666 16.2784C21.6954 16.2815 21.8241 16.2761 21.9528 16.2807C22.0169 16.283 22.0417 16.2627 22.0474 16.1919C22.064 15.9793 22.0855 15.7668 22.11 15.555C22.1172 15.4914 22.1035 15.4684 22.0417 15.4711C21.937 15.4749 21.832 15.4699 21.7274 15.473C21.6731 15.4745 21.6461 15.4627 21.649 15.3945C21.6544 15.2578 21.6526 15.1203 21.6497 14.9832C21.6486 14.9288 21.6662 14.9108 21.7166 14.9119C21.8421 14.9146 21.9683 14.9089 22.0938 14.9146C22.1557 14.9173 22.1769 14.8943 22.1826 14.8315C22.2057 14.5811 22.2344 14.331 22.256 14.0805C22.2614 14.0188 22.2794 13.9997 22.3369 14.0012C22.4714 14.0051 22.6063 14.0051 22.7411 14.0012C22.7987 13.9997 22.8123 14.0196 22.8059 14.079C22.7789 14.3291 22.7588 14.5799 22.7293 14.8296C22.7206 14.9024 22.7415 14.9177 22.803 14.9139C22.8799 14.9085 22.958 14.9119 23.0357 14.9119ZM22.976 15.4711C22.8922 15.4711 22.8084 15.4719 22.7246 15.4707C22.6919 15.4703 22.6674 15.473 22.6631 15.5182C22.6412 15.753 22.6178 15.9873 22.594 16.2217C22.5901 16.2619 22.6023 16.2799 22.6426 16.2796C22.8131 16.2784 22.9839 16.2792 23.1543 16.2788C23.1827 16.2788 23.2068 16.2757 23.2104 16.2351C23.2331 16.0007 23.2568 15.766 23.2809 15.532C23.2856 15.4864 23.2712 15.4688 23.227 15.4703C23.1439 15.473 23.0598 15.4711 22.976 15.4711Z" fill="#002E42"/>
<path d="M27.3445 23.0839C27.1045 22.6453 27.3295 21.9522 27.7945 21.6976C28.1584 21.4985 28.2472 21.0089 27.8782 20.8194C27.4469 20.5979 26.8499 20.5047 26.1442 20.8909C25.3669 21.3164 25.0813 21.9822 25.0029 22.5333C24.944 22.9466 24.7636 23.362 24.4009 23.5687L20.6953 25.6807C20.1886 25.9696 20.0203 26.6198 20.3234 27.1181C20.6176 27.6017 21.2457 27.7594 21.7334 27.4721L25.0751 25.5032C25.5616 25.2166 26.2827 25.3597 26.8314 25.4933C27.3279 25.6142 27.9595 25.5973 28.5448 25.2769C29.2067 24.9147 29.4879 24.3405 29.553 23.8471C29.6104 23.4117 29.1401 23.2412 28.7548 23.452C28.2897 23.7066 27.5846 23.5225 27.3445 23.0839Z" fill="white" stroke="white" stroke-width="3" stroke-linecap="round"/>
<path d="M27.3445 23.084C27.1045 22.6454 27.3295 21.9523 27.7945 21.6977C28.1584 21.4986 28.2472 21.009 27.8782 20.8195C27.4469 20.598 26.8499 20.5048 26.1442 20.891C25.3669 21.3165 25.0813 21.9824 25.0029 22.5334C24.944 22.9467 24.7636 23.3621 24.4009 23.5688L20.6953 25.6809C20.1886 25.9697 20.0203 26.6199 20.3234 27.1182C20.6176 27.6019 21.2457 27.7595 21.7334 27.4722L25.0751 25.5034C25.5616 25.2167 26.2827 25.3599 26.8314 25.4935C27.3279 25.6144 27.9595 25.5974 28.5448 25.277C29.2067 24.9148 29.4879 24.3406 29.553 23.8472C29.6104 23.4118 29.1401 23.2413 28.7548 23.4522C28.2897 23.7067 27.5846 23.5226 27.3445 23.084Z" fill="white" stroke="#002E42" stroke-linecap="round"/>
</svg>

<svg width="33" height="32" fill="none" xmlns="http://www.w3.org/2000/svg"><path d="M27.998 10.555a1.86 1.86 0 0 0-.323-1.043 2.094 2.094 0 0 0-.799-.79c-2.352-1.309-4.706-2.615-7.06-3.922-.936-.52-1.86-1.06-2.812-1.55-.685-.352-1.406-.325-2.09.036-.69.365-1.365.756-2.047 1.135C10.293 5.85 7.72 7.275 5.15 8.709c-.759.423-1.146 1.071-1.147 1.916C4 14.19 4.003 17.755 4 21.32c0 .421.09.813.302 1.18.152.244.34.459.577.628.37.263.785.455 1.18.68.69.39 1.387.773 2.083 1.155.145.08.281.172.436.234.024.01.04.033.061.046v0c.015.008.034.011.047.02.01.008.021.015.033.02.027.014.052.038.081.047v0c.01.004.022.005.031.01.061.033.117.076.18.103.037.015.07.045.104.064v0c.297.165.595.33.892.493.601.332 1.203.663 1.804.997.518.288 1.035.58 1.554.868.493.275.991.542 1.482.82a2.24 2.24 0 0 0 2.006.143c.513-.203.972-.518 1.456-.78.54-.295 1.076-.598 1.613-.896l1.774-.983c.565-.315 1.13-.631 1.696-.945.46-.256.921-.508 1.38-.763.604-.336 1.205-.674 1.808-1.009.3-.166.61-.32.84-.577.064-.071.131-.14.187-.217.072-.101.125-.215.181-.326v0c.141-.28.21-.577.21-.886.002-1.857.002-3.714.002-5.57-.001-1.774 0-3.547-.002-5.32Z" stroke="#002E42" stroke-width="2" stroke-linecap="round"/><path d="M13.707 21.518c-.025-.01-.05-.016-.074-.028-.167-.081-.336-.159-.5-.247a5.852 5.852 0 0 1-2.313-2.223 6.08 6.08 0 0 1-.706-1.933 6.038 6.038 0 0 1-.113-1.254c.021-.85.2-1.667.573-2.438a5.75 5.75 0 0 1 1.083-1.534 6.159 6.159 0 0 1 2.178-1.427 6.225 6.225 0 0 1 2.569-.428c.713.032 1.4.188 2.057.468a6.12 6.12 0 0 1 2.317 1.751c.187.225.359.46.515.706v0c.019.03.016.067-.013.087-.165.11-.343.201-.515.3a402.882 402.882 0 0 1-1.904 1.087c-.09.059-.2.013-.263-.075v0c-.683-.96-1.618-1.421-2.804-1.325-.785.064-1.465.392-1.974.993-.776.917-.987 1.95-.569 3.088.042.116.087.232.157.336.032.048.06.103.09.151v0c.224.356.507.657.86.887.93.606 1.915.736 2.947.289.563-.244.993-.643 1.324-1.146.036-.055.085-.104.142-.071v0l1.879 1.075.66.375v0c.018.01.013.037.003.054a6.44 6.44 0 0 1-.906 1.186 5.79 5.79 0 0 1-2.845 1.61 6.15 6.15 0 0 1-2.158.125 6.432 6.432 0 0 1-1.697-.439v0Z" stroke="#002E42" stroke-width="2" stroke-linecap="round"/><path d="M23.036 14.912c.08 0 .162-.003.242 0 .05.003.068-.018.073-.07.023-.253.051-.506.072-.76.005-.06.02-.083.079-.082.134.004.27.004.404 0 .057-.001.072.018.066.077-.027.25-.047.501-.075.751-.008.07.011.088.074.086.114-.005.228 0 .342-.003.05-.001.068.015.067.07-.003.14-.003.281 0 .421.001.056-.018.071-.067.07-.135-.003-.27.001-.404-.002-.059-.002-.077.02-.082.08-.018.216-.04.432-.064.647-.007.062.006.086.068.083.11-.005.222 0 .333-.002.049-.001.069.014.067.07-.003.14-.003.28 0 .421.001.056-.018.072-.068.07-.126-.001-.252.004-.377-.001-.067-.004-.089.022-.094.09-.023.27-.053.539-.075.809-.006.076-.027.106-.102.102a4.434 4.434 0 0 0-.377 0c-.071.003-.091-.015-.082-.097.034-.271.056-.545.085-.817.007-.066-.01-.089-.075-.087-.15.005-.3.005-.45 0-.063 0-.088.017-.093.09-.022.273-.051.545-.075.818-.005.065-.023.097-.092.094a5.425 5.425 0 0 0-.395 0c-.065.002-.083-.02-.075-.088.03-.266.056-.532.084-.798.012-.114.012-.114-.099-.114-.102 0-.203-.002-.305.001-.052.002-.067-.018-.066-.072.003-.14.003-.28 0-.42-.001-.056.016-.072.067-.07.128.003.257-.003.386.002.064.002.089-.018.094-.09.017-.212.038-.424.063-.636.007-.064-.006-.087-.068-.084-.105.004-.21-.001-.315.002-.054.002-.08-.01-.078-.079a6.795 6.795 0 0 0 0-.41c0-.055.017-.073.068-.072.125.003.251-.003.377.003.062.002.083-.02.089-.083.023-.25.051-.501.073-.752.005-.061.023-.08.08-.079.135.004.27.004.405 0 .058-.001.071.019.065.078-.027.25-.047.5-.077.75-.008.073.012.089.074.085.077-.005.155-.002.233-.002Zm-.06.56-.251-.001c-.033 0-.058.002-.062.047-.022.235-.045.47-.069.704-.004.04.008.058.049.058.17-.002.34 0 .511-.001.029 0 .053-.003.056-.044l.07-.703c.006-.046-.009-.063-.053-.062-.083.003-.167.001-.251.001Z" fill="#002E42"/><path d="M27.345 23.084c-.24-.439-.015-1.132.45-1.386.363-.2.452-.69.083-.879-.431-.221-1.028-.314-1.734.072a2.164 2.164 0 0 0-1.141 1.642c-.059.414-.24.829-.602 1.036l-3.706 2.112a1.035 1.035 0 1 0 1.038 1.791l3.342-1.969c.487-.286 1.208-.143 1.756-.01a2.405 2.405 0 0 0 1.714-.216c.662-.362.943-.937 1.008-1.43.057-.435-.413-.606-.798-.395-.465.255-1.17.07-1.41-.368Z" fill="#fff" stroke="#fff" stroke-width="3" stroke-linecap="round"/><path d="M27.345 23.084c-.24-.439-.015-1.132.45-1.386.363-.2.452-.689.083-.878-.431-.222-1.028-.315-1.734.071a2.164 2.164 0 0 0-1.141 1.642c-.059.414-.24.83-.602 1.036l-3.706 2.112a1.035 1.035 0 1 0 1.038 1.791l3.342-1.969c.487-.286 1.208-.143 1.756-.01a2.405 2.405 0 0 0 1.714-.216c.662-.362.943-.936 1.008-1.43.057-.435-.413-.606-.798-.395-.465.255-1.17.07-1.41-.368Z" fill="#fff" stroke="#002E42" stroke-linecap="round"/></svg>
